assets/img/service/icon.svg

<svg fill="none" height="17" viewBox="0 0 24 17" width="24" xmlns="http://www.w3.org/2000/svg" xmlns:xlink="http://www.w3.org/1999/xlink"><clipPath id="a"><path d="m0 0h24v17h-24z"/></clipPath><g clip-path="url(#a)"><path d="m22.9958.779999.104.468001c-1.9414 1.248-2.912 3.03333-2.912 5.356 0 .76267.104 1.64667.312 2.652.0693.38133.1213.7627.156 1.144.0693.3813.104.7627.104 1.144 0 1.768-.468 3.1027-1.404 4.004s-2.0107 1.352-3.224 1.352c-1.3867 0-2.4614-.5027-3.224-1.508-.7627-1.04-1.144-2.3053-1.144-3.796 0-1.144.2426-2.35733.728-3.64.52-1.28267 1.2826-2.46133 2.288-3.536 1.248-1.31733 2.6-2.25333 4.056-2.808 1.4906-.55467 2.8773-.832001 4.16-.832001zm-10.92 0 .104.468001c-1.9414 1.248-2.91205 3.03333-2.91205 5.356 0 .76267.104 1.64667.312 2.652.06934.38133.12133.7627.156 1.144.06933.3813.104.7627.104 1.144 0 1.768-.468 3.1027-1.404 4.004s-2.01067 1.352-3.224 1.352c-1.38667 0-2.46134-.5027-3.224-1.508-.76267-1.04-1.144-2.3053-1.144-3.796 0-1.144.24266-2.35733.728-3.64.52-1.28267 1.28266-2.46133 2.288-3.536 1.248-1.31733 2.6-2.25333 4.056-2.808 1.49066-.55467 2.87735-.832001 4.16005-.832001z" fill="#7d6e4a"/></g></svg>

<svg width="24" height="17" viewBox="0 0 24 17" fill="none" xmlns="http://www.w3.org/2000/svg">
<g clip-path="url(#clip0_216_1392)">
<path d="M22.9958 0.779999L23.0998 1.248C21.1584 2.496 20.1878 4.28133 20.1878 6.604C20.1878 7.36667 20.2918 8.25067 20.4998 9.256C20.5691 9.63733 20.6211 10.0187 20.6558 10.4C20.7251 10.7813 20.7598 11.1627 20.7598 11.544C20.7598 13.312 20.2918 14.6467 19.3558 15.548C18.4198 16.4493 17.3451 16.9 16.1318 16.9C14.7451 16.9 13.6704 16.3973 12.9078 15.392C12.1451 14.352 11.7638 13.0867 11.7638 11.596C11.7638 10.452 12.0064 9.23867 12.4918 7.956C13.0118 6.67333 13.7744 5.49467 14.7798 4.42C16.0278 3.10267 17.3798 2.16667 18.8358 1.612C20.3264 1.05733 21.7131 0.779999 22.9958 0.779999ZM12.0758 0.779999L12.1798 1.248C10.2384 2.496 9.26775 4.28133 9.26775 6.604C9.26775 7.36667 9.37175 8.25067 9.57975 9.256C9.64909 9.63733 9.70108 10.0187 9.73575 10.4C9.80508 10.7813 9.83975 11.1627 9.83975 11.544C9.83975 13.312 9.37175 14.6467 8.43575 15.548C7.49975 16.4493 6.42508 16.9 5.21175 16.9C3.82508 16.9 2.75041 16.3973 1.98775 15.392C1.22508 14.352 0.84375 13.0867 0.84375 11.596C0.84375 10.452 1.08641 9.23867 1.57175 7.956C2.09175 6.67333 2.85441 5.49467 3.85975 4.42C5.10775 3.10267 6.45975 2.16667 7.91575 1.612C9.40641 1.05733 10.7931 0.779999 12.0758 0.779999Z" fill="#7D6E4A"/>
</g>
<defs>
<clipPath id="clip0_216_1392">
<rect width="24" height="17" fill="white"/>
</clipPath>
</defs>
</svg>
